<?xml version="1.0" encoding="UTF-8"?>
<map version="1.10" tiledversion="1.12.1" orientation="orthogonal" renderorder="right-down" width="30" height="17" tilewidth="64" tileheight="64" infinite="0" nextlayerid="4" nextobjectid="1">
 <editorsettings>
  <export target="Juegos_Web_Actividad2/assets/Mapa_Act2.json" format="json"/>
 </editorsettings>
 <tileset firstgid="1" name="spritesheet-tiles-default" tilewidth="64" tileheight="64" spacing="1" margin="1" tilecount="289" columns="17">
  <image source="Juegos_Web_Actividad2/assets/Spritesheets/spritesheet-tiles-default.png" width="1169" height="1169"/>
 </tileset>
 <layer id="3" name="Capa de patrones 1" width="30" height="17">
  <data encoding="csv">
0,0,0,0,0,0,0,0,0,0,0,0,0,0,0,0,0,0,0,189,188,190,0,0,0,0,0,0,0,0,
0,0,0,0,0,0,0,0,0,0,0,0,0,0,0,0,0,0,0,239,186,240,0,0,0,172,173,173,176,0,
168,0,29,0,0,0,0,0,168,0,168,0,0,174,173,173,175,0,0,0,0,0,0,158,0,0,0,0,0,0,
0,0,0,0,0,29,0,0,0,0,0,0,0,0,0,0,0,0,0,0,0,0,0,0,0,0,0,158,0,0,
0,0,0,0,0,0,0,0,0,0,0,0,0,0,0,0,0,0,0,158,0,0,0,0,0,158,0,0,0,0,
0,0,29,0,0,0,0,0,0,158,0,172,173,173,173,173,173,176,0,0,0,0,158,0,0,0,0,0,0,158,
0,0,0,0,29,0,0,0,0,0,0,0,0,0,0,0,0,0,0,0,184,0,0,0,0,0,0,158,0,0,
0,0,0,0,0,0,166,167,0,0,0,0,0,0,0,0,0,0,0,0,183,0,0,0,158,0,158,0,0,0,
0,0,0,0,0,0,160,162,165,167,0,0,0,0,0,0,0,0,0,0,183,0,0,0,0,0,0,0,0,0,
170,171,0,0,0,0,0,160,162,162,167,0,0,0,0,0,0,0,0,0,183,0,0,0,0,0,0,0,0,0,
0,0,0,168,0,0,0,0,160,159,162,173,176,0,0,0,0,0,0,0,182,0,0,0,0,0,0,0,166,167,
0,0,0,0,168,0,0,0,0,0,182,0,0,0,0,0,0,0,0,0,0,0,0,0,0,170,171,0,163,164,
0,0,0,0,0,168,0,0,0,0,0,0,0,0,172,173,173,173,176,0,0,0,0,0,0,0,0,0,163,164,
0,0,0,0,0,0,170,171,0,0,0,0,0,0,0,0,0,0,0,0,0,170,171,0,0,0,0,0,163,164,
0,0,0,0,0,0,0,0,0,0,166,165,167,0,0,0,0,0,0,0,0,0,0,0,0,170,171,0,163,164,
0,0,0,166,165,165,165,165,165,165,162,162,162,167,0,0,0,0,0,0,0,0,166,167,0,0,0,0,163,164,
172,173,173,159,159,159,159,159,159,159,159,159,159,159,173,173,173,173,173,173,173,173,159,159,173,173,173,173,159,161
</data>
 </layer>
</map>
